X: 144
T: The Monkton Lasses, a Strathspey
C: attr. John French (1753-1803)
R: strathspey
B: "John French Collection", John French ed. p.14 #4
S: http://www.heallan.com/french.asp
Z: 2012 John Chambers <jc:trillian.mit.edu>
N: The key signature is odd, since all the c's are sharp.
M: C
L: 1/8
K: Dmix
F |\
D/D/D (AF) EFGE | D/D/D (eg) fde^c | dAc=F ECGE | =FdE^c dDD :|
(g |\
f)dge ^cde(g | f)dge afbg | fdge ^cdeg | fde^c dDD(g |
f)dge ^cde(g | f)dge afbg | fdAF EFGB | A^ceg fdd |]

%%sep 2 1 500
%%sep 1 1 500

